X: 62
T: the Post Coach
%R: reel, march
B: Chas & Sam Thompson "Twenty Four Country Dances for the Year 1767", London 1767, p.31 #2
F: http://www.vwml.org/browse/browse-collections-dance-tune-books/browse-thompsons1767
Z: 2014 John Chambers <jc:trillian.mit.edu> (added dance description)
N: The 2nd strain has initial repeat but no final repeat symbol.
M: 2/4
L: 1/16
K: G
% - - - - - - - - - - - - - - - - - - - - - - - - - - - - -
G2 |\
G2 g4 fe | d2d2d3c | BdBG AcAF | G2G2G3G |\
G2 g4 fe | d2 a4 g2 | f2ed A2^c2 | d2d2d2 :|
|: d2 |\
d2 =f2 ed | c2c2c3c | c2 e4 dc | B2B2B3A |\
G2 g4 GF | E2 e4 dc | B2AG D2F2 | G2[G2D2][G2G,2] |]
% - - - - - - - - - - Dance description - - - - - - - - - -
%%begintext align
%% Cast off one Cu. and clap three times cast off
%% another Cu. and clap three times .|. the same
%% up again :|. cast off hands four at bottom and
%% clap three times .|: right and left at Top and
%% clap three times :|:
%%endtext

%%sep 1 1 500
%%sep 1 1 500
